svg/OSM-icons/highway #a4a4a4 °ffffff !label=enhighways,deStrassen/18025;highway=speed_camera;!label=enspeed trap,deBlitzer.svg

<svg xmlns="http://www.w3.org/2000/svg" viewBox="0 0 580 580" enable-background="new 0 0 580 580"><path fill="#111" stroke="#eee" stroke-width="3.408" d="m66.28 1.768c-41.34 0-64.57 21.371-64.57 65.04v450.12c0 40.844 20.894 62.23 62.19 62.23h452.02c41.31 0 62.23-20.316 62.23-62.23v-450.12c0-42.601-20.923-65.04-63.52-65.04-.003 0-448.49-.143-448.35 0z"/><path fill="#fff" d="m135.17 464.17h154.83c32.05 0 58.07-25.986 58.07-58.07v-232.2c0-32.08-26.02-58.07-58.07-58.07h-154.83c-32.05 0-58.03 25.988-58.03 58.07v232.2c0 32.08 25.986 58.07 58.03 58.07m116.14-106.43c0 37.409-30.33 67.7-67.741 67.7-37.411 0-67.741-30.3-67.741-67.7 0-37.411 30.33-67.742 67.741-67.742 37.411 0 67.741 30.331 67.741 67.742m-19.381 0c0-26.719-21.644-48.4-48.36-48.4-26.716 0-48.4 21.679-48.4 48.4 0 26.716 21.68 48.36 48.4 48.36 26.718.0001 48.36-21.644 48.36-48.36m77.41-183.84c0 21.352-17.336 38.689-38.688 38.689-21.389 0-38.725-17.337-38.725-38.689 0-21.388 17.336-38.725 38.725-38.725 21.352 0 38.688 17.337 38.688 38.725m-19.345 0c0-10.694-8.649-19.344-19.343-19.344-10.695 0-19.345 8.65-19.345 19.344s8.649 19.345 19.345 19.345c10.693 0 19.343-8.651 19.343-19.345m77.41 203.19h19.345v-203.19h-19.345v203.19m38.69 0h19.342v-183.84h-19.342v183.84m-38.69 19.344v19.345h96.75v-58.03h38.689v-106.43h-38.689v-38.725h-19.342v183.84h-77.41"/></svg>

<?xml version="1.0" encoding="utf-8"?>
<!-- Generator: Adobe Illustrator 15.0.0, SVG Export Plug-In . SVG Version: 6.00 Build 0)  -->
<!DOCTYPE svg PUBLIC "-//W3C//DTD SVG 1.1//EN" "http://www.w3.org/Graphics/SVG/1.1/DTD/svg11.dtd">
<svg version="1.1" xmlns="http://www.w3.org/2000/svg" xmlns:xlink="http://www.w3.org/1999/xlink" x="0px" y="0px" width="580px"
	 height="580px" viewBox="0 0 580 580" enable-background="new 0 0 580 580" xml:space="preserve">
<g id="Layer_2">
	<g id="g1327">
		<path id="path1329" fill="#111111" stroke="#EEEEEE" stroke-width="3.408" d="M66.275,1.768
			c-41.335,0-64.571,21.371-64.571,65.036v450.123c0,40.844,20.894,62.229,62.192,62.229H515.92
			c41.307,0,62.229-20.316,62.229-62.229V66.804c0-42.601-20.923-65.036-63.522-65.036C514.624,1.768,66.133,1.625,66.275,1.768z"/>
	</g>
</g>
<g id="svg2" inkscape:version="0.46" sodipodi:docname="waste_bin.svg" sodipodi:version="0.32" xmlns:dc="http://purl.org/dc/elements/1.1/" xmlns:cc="http://creativecommons.org/ns#" xmlns:sodipodi="http://sodipodi.sourceforge.net/DTD/sodipodi-0.dtd" xmlns:svg="http://www.w3.org/2000/svg" xmlns:rdf="http://www.w3.org/1999/02/22-rdf-syntax-ns#" xmlns:inkscape="http://www.inkscape.org/namespaces/inkscape" inkscape:output_extension="org.inkscape.output.svg.inkscape">
	<defs>
		
		
			<inkscape:perspective  id="perspective10" inkscape:persp3d-origin="372.04724 : 350.78739 : 1" inkscape:vp_y="0 : 1000 : 0" inkscape:vp_x="0 : 526.18109 : 1" sodipodi:type="inkscape:persp3d" inkscape:vp_z="744.09448 : 526.18109 : 1">
			</inkscape:perspective>
	</defs>
	
		<sodipodi:namedview  id="base" inkscape:window-x="-4" inkscape:current-layer="layer1" inkscape:window-width="1600" inkscape:window-y="-4" inkscape:pageopacity="0.0" inkscape:window-height="1110" inkscape:pageshadow="2" bordercolor="#666666" inkscape:cy="520" pagecolor="#ffffff" borderopacity="1.0" inkscape:zoom="0.35" showgrid="false" inkscape:cx="-81.428571" inkscape:document-units="px">
		</sodipodi:namedview>
	<path fill="#FFFFFF" d="M135.174,464.169H290c32.046,0,58.069-25.986,58.069-58.066V173.899c0-32.081-26.022-58.068-58.069-58.068
		H135.174c-32.046,0-58.032,25.988-58.032,58.068v232.204C77.142,438.183,103.128,464.169,135.174,464.169z M251.312,357.742
		c0,37.409-30.33,67.704-67.741,67.704c-37.411,0-67.741-30.295-67.741-67.704c0-37.411,30.33-67.742,67.741-67.742
		C220.982,290,251.312,320.331,251.312,357.742z M231.931,357.742c0-26.719-21.644-48.397-48.361-48.397
		c-26.716,0-48.396,21.679-48.396,48.397c0,26.716,21.68,48.36,48.396,48.36C210.288,406.103,231.931,384.458,231.931,357.742z
		 M309.345,173.899c0,21.352-17.336,38.689-38.688,38.689c-21.389,0-38.725-17.337-38.725-38.689
		c0-21.388,17.336-38.725,38.725-38.725C292.009,135.174,309.345,152.511,309.345,173.899z M290,173.899
		c0-10.694-8.649-19.344-19.343-19.344c-10.695,0-19.345,8.65-19.345,19.344s8.649,19.345,19.345,19.345
		C281.35,193.244,290,184.593,290,173.899z M367.413,377.085h19.345V173.899h-19.345V377.085z M406.103,377.085h19.342V193.244
		h-19.342V377.085z M367.413,396.429v19.345h96.755v-58.031h38.689V251.313h-38.689v-38.725h-19.342v183.84H367.413z"/>
</g>
</svg>
